X: 1
T: Invercald's Rant
M: 4/4
L: 1/8
R: strathspey
K: Ador
B>A|:D<D E>G A>G EG|D<D E>G c3e|d<B g>e d>B AB|D<D E>G A3B:|
|:c>A B>G A<G E>G|c>B c>d ef g<e|d<B g>e d>B AB|D<D E>G A3B:|
